Dominus_Dark_Funeral/scalable/mimes/application-postscript.svg

<svg xmlns="http://www.w3.org/2000/svg" xmlns:xlink="http://www.w3.org/1999/xlink" width="48" height="48" viewBox="0 0 12.7 12.7"><defs><linearGradient xlink:href="#a" id="b" x1="20.52" y1="-4.5" x2="12.11" y2="44.88" gradientUnits="userSpaceOnUse"/><linearGradient id="a"><stop offset="0" stop-color="#892ca0"/><stop offset=".2" stop-color="#bc5fd3"/><stop offset=".33" stop-color="#bc5fd3"/><stop offset=".44" stop-color="#ab37c8"/><stop offset=".57" stop-color="#bc5fd3"/><stop offset=".76" stop-color="#ab37c8"/><stop offset="1" stop-color="#bc5fd3"/></linearGradient></defs><path d="M40.89 17.42l-7.83 30.55H14.94L7.11 17.42 13.01.03H35z" fill="url(#b)" transform="translate(0 -.01) scale(.26458)"/><path d="M4.84 11.58l-.89 1.1h4.8l-.89-1.1z" fill="#441650" fill-opacity=".1"/><path d="M3.44 0l.82 1.1h4.18L9.26 0z" fill="#441650" fill-opacity=".35"/><path d="M4.84 11.58l-.89 1.1L1.88 4.6l1.18.04z" fill="#441650" fill-opacity=".47"/><path d="M1.88 4.6L3.44 0l.82 1.1-1.2 3.54zm8.94 0L9.26 0l-.82 1.1 1.2 3.54z" fill="#441650" fill-opacity=".71"/><path d="M7.86 11.58l.89 1.1 2.07-8.08-1.17.04z" fill="#441650" fill-opacity=".47"/><path d="M7.81 3.13l-2.9.01v.73h2.9zM4.19 4.21c-.2 0-.37.2-.37.38v1.45c0 .18.18.36.37.36h.35v-.73h.38v1.78h2.87V5.67h.37v.73h.37a.38.38 0 0 0 .35-.36V4.6c0-.18-.18-.37-.35-.37zm1.05 1.45h2.25v1.48H5.24z" fill="#fff"/></svg>

<?xml version="1.0" encoding="UTF-8" standalone="no"?>
<svg
   xmlns:dc="http://purl.org/dc/elements/1.1/"
   xmlns:cc="http://creativecommons.org/ns#"
   xmlns:rdf="http://www.w3.org/1999/02/22-rdf-syntax-ns#"
   xmlns:svg="http://www.w3.org/2000/svg"
   xmlns="http://www.w3.org/2000/svg"
   xmlns:xlink="http://www.w3.org/1999/xlink"
   xmlns:sodipodi="http://sodipodi.sourceforge.net/DTD/sodipodi-0.dtd"
   xmlns:inkscape="http://www.inkscape.org/namespaces/inkscape"
   width="48"
   height="48"
   viewBox="0 0 12.7 12.7"
   version="1.1"
   id="svg34"
   sodipodi:docname="application-postscript.svg"
   inkscape:version="0.92.4 (5da689c313, 2019-01-14)">
  <metadata
     id="metadata38">
    <rdf:RDF>
      <cc:Work
         rdf:about="">
        <dc:format>image/svg+xml</dc:format>
        <dc:type
           rdf:resource="http://purl.org/dc/dcmitype/StillImage" />
        <dc:title></dc:title>
      </cc:Work>
    </rdf:RDF>
  </metadata>
  <sodipodi:namedview
     pagecolor="#ffffff"
     bordercolor="#666666"
     borderopacity="1"
     objecttolerance="10"
     gridtolerance="10"
     guidetolerance="10"
     inkscape:pageopacity="0"
     inkscape:pageshadow="2"
     inkscape:window-width="1112"
     inkscape:window-height="480"
     id="namedview36"
     showgrid="false"
     inkscape:zoom="4.9166667"
     inkscape:cx="2.1355932"
     inkscape:cy="24"
     inkscape:window-x="0"
     inkscape:window-y="25"
     inkscape:window-maximized="0"
     inkscape:current-layer="svg34" />
  <defs
     id="defs18">
    <linearGradient
       xlink:href="#a"
       id="b"
       x1="20.52"
       y1="-4.5"
       x2="12.11"
       y2="44.88"
       gradientUnits="userSpaceOnUse"
       gradientTransform="matrix(0.26458,0,0,0.26458,0,-0.01)" />
    <linearGradient
       id="a">
      <stop
         offset="0"
         stop-color="#892ca0"
         id="stop3" />
      <stop
         offset=".2"
         stop-color="#bc5fd3"
         id="stop5" />
      <stop
         offset=".33"
         stop-color="#bc5fd3"
         id="stop7" />
      <stop
         offset=".44"
         stop-color="#ab37c8"
         id="stop9" />
      <stop
         offset=".57"
         stop-color="#bc5fd3"
         id="stop11" />
      <stop
         offset=".76"
         stop-color="#ab37c8"
         id="stop13" />
      <stop
         offset="1"
         stop-color="#bc5fd3"
         id="stop15" />
    </linearGradient>
  </defs>
  <path
     d="M 10.818677,4.5989836 8.7470148,12.681903 H 3.9528252 L 1.8811638,4.5989836 3.4421858,-0.0020626 H 9.2603 Z"
     id="path20"
     style="fill:url(#b);stroke-width:0.26458001"
     inkscape:connector-curvature="0" />
  <path
     d="m 4.84,11.58 -0.89,1.1 h 4.8 l -0.89,-1.1 z"
     id="path22"
     inkscape:connector-curvature="0"
     style="fill:#441650;fill-opacity:0.1" />
  <path
     d="M 3.44,0 4.26,1.1 H 8.44 L 9.26,0 Z"
     id="path24"
     inkscape:connector-curvature="0"
     style="fill:#441650;fill-opacity:0.35" />
  <path
     d="M 4.84,11.58 3.95,12.68 1.88,4.6 3.06,4.64 Z"
     id="path26"
     inkscape:connector-curvature="0"
     style="fill:#441650;fill-opacity:0.47000002" />
  <path
     d="M 1.88,4.6 3.44,0 4.26,1.1 3.06,4.64 Z m 8.94,0 L 9.26,0 8.44,1.1 9.64,4.64 Z"
     id="path28"
     inkscape:connector-curvature="0"
     style="fill:#441650;fill-opacity:0.70999995" />
  <path
     d="M 7.86,11.58 8.75,12.68 10.82,4.6 9.65,4.64 Z"
     id="path30"
     inkscape:connector-curvature="0"
     style="fill:#441650;fill-opacity:0.47000002" />
  <path
     d="m 7.81,3.13 -2.9,0.01 v 0.73 h 2.9 z M 4.19,4.21 c -0.2,0 -0.37,0.2 -0.37,0.38 V 6.04 C 3.82,6.22 4,6.4 4.19,6.4 H 4.54 V 5.67 H 4.92 V 7.45 H 7.79 V 5.67 H 8.16 V 6.4 H 8.53 A 0.38,0.38 0 0 0 8.88,6.04 V 4.6 C 8.88,4.42 8.7,4.23 8.53,4.23 Z M 5.24,5.66 H 7.49 V 7.14 H 5.24 Z"
     id="path32"
     inkscape:connector-curvature="0"
     style="fill:#ffffff" />
</svg>
